src/assets/outline/FingerCricle.svg

<svg width="24" height="24" viewBox="0 0 24 24"  xmlns="http://www.w3.org/2000/svg">
<path d="M12 22.75C6.07 22.75 1.25 17.93 1.25 12C1.25 6.07 6.07 1.25 12 1.25C17.93 1.25 22.75 6.07 22.75 12C22.75 17.93 17.93 22.75 12 22.75ZM12 2.75C6.9 2.75 2.75 6.9 2.75 12C2.75 17.1 6.9 21.25 12 21.25C17.1 21.25 21.25 17.1 21.25 12C21.25 6.9 17.1 2.75 12 2.75Z" />
<path d="M12.0001 15.6299C10.6801 15.6299 9.6001 14.5499 9.6001 13.2299V10.7599C9.6001 9.43989 10.6801 8.35986 12.0001 8.35986C13.3201 8.35986 14.4001 9.43989 14.4001 10.7599V13.2299C14.4001 14.5599 13.3201 15.6299 12.0001 15.6299ZM12.0001 9.86987C11.5101 9.86987 11.1001 10.2699 11.1001 10.7699V13.2399C11.1001 13.7399 11.5001 14.1399 12.0001 14.1399C12.5001 14.1399 12.9001 13.7399 12.9001 13.2399V10.7699C12.9001 10.2699 12.4901 9.86987 12.0001 9.86987Z" />
<path d="M12 18.8202C8.83 18.8202 6.25 16.2402 6.25 13.0702V10.9302C6.25 7.76018 8.83 5.18018 12 5.18018C14.96 5.18018 17.42 7.40021 17.72 10.3402C17.76 10.7502 17.46 11.1202 17.05 11.1602C16.64 11.2102 16.27 10.9002 16.23 10.4902C16.01 8.32017 14.19 6.68018 12 6.68018C9.66 6.68018 7.75 8.59018 7.75 10.9302V13.0702C7.75 15.4102 9.66 17.3202 12 17.3202C14.2 17.3202 16.06 15.6002 16.24 13.4102C16.27 13.0002 16.63 12.6902 17.05 12.7202C17.46 12.7502 17.77 13.1102 17.74 13.5302C17.5 16.5002 14.98 18.8202 12 18.8202Z" />
</svg>

<?xml version="1.0" encoding="UTF-8"?>
<svg width="24" height="24" viewBox="0 0 24 24" xmlns="http://www.w3.org/2000/svg">
 <path d="m12 22.75c-5.93 0-10.75-4.82-10.75-10.75s4.82-10.75 10.75-10.75 10.75 4.82 10.75 10.75-4.82 10.75-10.75 10.75zm0-20c-5.1 0-9.25 4.15-9.25 9.25s4.15 9.25 9.25 9.25 9.25-4.15 9.25-9.25-4.15-9.25-9.25-9.25z"/>
 <path d="m12 15.63c-1.32 0-2.4-1.08-2.4-2.4v-2.47c0-1.32 1.08-2.4 2.4-2.4s2.4 1.08 2.4 2.4v2.47c0 1.33-1.08 2.4-2.4 2.4zm0-5.76c-0.49 0-0.9 0.40003-0.9 0.90003v2.47c0 0.5 0.4 0.9 0.9 0.9s0.9-0.4 0.9-0.9v-2.47c0-0.5-0.41-0.90003-0.9-0.90003z"/>
 <path d="m12 18.82c-3.17 0-5.75-2.58-5.75-5.75v-2.14c0-3.17 2.58-5.75 5.75-5.75 2.96 0 5.42 2.22 5.72 5.16 0.04 0.41-0.26 0.78-0.67 0.82-0.41 0.05-0.78-0.26-0.82-0.67-0.22-2.17-2.04-3.81-4.23-3.81-2.34 0-4.25 1.91-4.25 4.25v2.14c0 2.34 1.91 4.25 4.25 4.25 2.2 0 4.06-1.72 4.24-3.91 0.03-0.41 0.39-0.72 0.81-0.69 0.41 0.03 0.72 0.39 0.69 0.81-0.24 2.97-2.76 5.29-5.74 5.29z"/>
</svg>
